dist/img/svg/text_icon.svg

<svg version="1.2" baseProfile="tiny-ps" xmlns="http://www.w3.org/2000/svg" width="1536" height="1536"><style>.shp0{fill:#000}</style><g id="Capa 1"><g id="&lt;Group&gt;"><path id="&lt;Path&gt;" class="shp0" d="M45 270c24.85 0 45-20.15 45-45V90h135c24.85 0 45-20.15 45-45S249.85 0 225 0H45C20.15 0 0 20.15 0 45v180c0 24.85 20.15 45 45 45zm180 1176H90v-135c0-24.85-20.15-45-45-45s-45 20.15-45 45v180c0 24.85 20.15 45 45 45h180c24.85 0 45-20.15 45-45s-20.15-45-45-45zm1266-180c-24.85 0-45 20.15-45 45v135h-135c-24.85 0-45 20.15-45 45s20.15 45 45 45h180c24.85 0 45-20.15 45-45v-180c0-24.85-20.15-45-45-45zm0-1266h-180c-24.85 0-45 20.15-45 45s20.15 45 45 45h135v135c0 24.85 20.15 45 45 45s45-20.15 45-45V45c0-24.85-20.15-45-45-45z"/><path id="&lt;Compound Path&gt;" fill-rule="evenodd" class="shp0" d="M1248 677.88c-24.85 0-45-20.15-45-45v-45c0-24.81-20.19-45-45-45H903v630.24h45c24.85 0 45 20.15 45 45 0 24.86-20.15 45-45 45H588c-24.85 0-45-20.14-45-45 0-24.85 20.15-45 45-45h45V542.88H378c-24.81 0-45 20.19-45 45v45c0 24.85-20.15 45-45 45s-45-20.15-45-45v-315c0-24.86 20.15-45 45-45h960c24.85 0 45 20.14 45 45v315c0 24.85-20.15 45-45 45zm-45-217.29v-97.71H333v97.71c14.08-4.99 29.23-7.71 45-7.71h300c24.85 0 45 20.14 45 45v675.24h90V497.88c0-24.86 20.15-45 45-45h300c15.77 0 30.92 2.72 45 7.71z"/></g></g></svg>

<svg version="1.2" baseProfile="tiny-ps" xmlns="http://www.w3.org/2000/svg" viewBox="0 0 1536 1536" width="1536" height="1536">
	<title>Capa 1</title>
	<style>
		tspan { white-space:pre }
		.shp0 { fill: #000000 } 
	</style>
	<g id="Capa 1">
		<g id="&lt;Group&gt;">
			<path id="&lt;Path&gt;" class="shp0" d="M45 270C69.85 270 90 249.85 90 225L90 90L225 90C249.85 90 270 69.85 270 45C270 20.15 249.85 0 225 0L45 0C20.15 0 0 20.15 0 45L0 225C0 249.85 20.15 270 45 270Z" />
			<path id="&lt;Path&gt;" class="shp0" d="M225 1446L90 1446L90 1311C90 1286.15 69.85 1266 45 1266C20.15 1266 0 1286.15 0 1311L0 1491C0 1515.85 20.15 1536 45 1536L225 1536C249.85 1536 270 1515.85 270 1491C270 1466.15 249.85 1446 225 1446Z" />
			<path id="&lt;Path&gt;" class="shp0" d="M1491 1266C1466.15 1266 1446 1286.15 1446 1311L1446 1446L1311 1446C1286.15 1446 1266 1466.15 1266 1491C1266 1515.85 1286.15 1536 1311 1536L1491 1536C1515.85 1536 1536 1515.85 1536 1491L1536 1311C1536 1286.15 1515.85 1266 1491 1266Z" />
			<path id="&lt;Path&gt;" class="shp0" d="M1491 0L1311 0C1286.15 0 1266 20.15 1266 45C1266 69.85 1286.15 90 1311 90L1446 90L1446 225C1446 249.85 1466.15 270 1491 270C1515.85 270 1536 249.85 1536 225L1536 45C1536 20.15 1515.85 0 1491 0Z" />
			<path id="&lt;Compound Path&gt;" fill-rule="evenodd" class="shp0" d="M1248 677.88C1223.15 677.88 1203 657.73 1203 632.88L1203 587.88C1203 563.07 1182.81 542.88 1158 542.88L903 542.88L903 1173.12L948 1173.12C972.85 1173.12 993 1193.27 993 1218.12C993 1242.98 972.85 1263.12 948 1263.12L588 1263.12C563.15 1263.12 543 1242.98 543 1218.12C543 1193.27 563.15 1173.12 588 1173.12L633 1173.12L633 542.88L378 542.88C353.19 542.88 333 563.07 333 587.88L333 632.88C333 657.73 312.85 677.88 288 677.88C263.15 677.88 243 657.73 243 632.88L243 317.88C243 293.02 263.15 272.88 288 272.88L1248 272.88C1272.85 272.88 1293 293.02 1293 317.88L1293 632.88C1293 657.73 1272.85 677.88 1248 677.88ZM1203 460.59L1203 362.88L333 362.88L333 460.59C347.08 455.6 362.23 452.88 378 452.88L678 452.88C702.85 452.88 723 473.02 723 497.88L723 1173.12L813 1173.12L813 497.88C813 473.02 833.15 452.88 858 452.88L1158 452.88C1173.77 452.88 1188.92 455.6 1203 460.59Z" />
		</g>
	</g>
</svg>
